X: 30141
T: Old Chestnuts
R: jig
M: 6/8
K: Eminor
e2 b bab|e2 b bab|d2 b bag|fga agf|
e2 b bab|e2 b bab|d2 b bag|fgf e2:|
E2 B, G2 B,|DB,A, A,B,D|E2 B, G2 B,|A,G,A, B,2 E|
BAF G2 B,|C2 G ECA,|EG,B, E2 B, } G,A,F E2:|
E2 G BAG|F2 G AGF|EB,E GEG|AGA B2 G|
B3 G3|EGE ^A,3|B,EG BAG|FGF E2:|

